Origami/64x64/apps/peruse.svg

<svg width="64" height="64" version="1" xmlns="http://www.w3.org/2000/svg">
 <path d="M 6.8007812,8 C 5.2495812,8 4,9.238455 4,10.777344 L 4,55.222656 C 4,56.761546 5.2495812,58 6.8007812,58 l 12.5976568,0 1.339844,0 36.460936,0 C 58.750418,58 60,56.761546 60,55.222656 l 0,-5.554688 0,-8.335936 0,-30.554688 C 60,9.238455 58.750418,8 57.199218,8 L 34.800782,8 6.8007812,8 Z" style="fill-rule:evenodd;opacity:.2"/>
 <path d="m34.8 7.0000002-7 23.611112 32.2 9.722222v-30.555556c0-1.5388888-1.2488-2.7777778-2.8-2.7777778z" style="fill-rule:evenodd;fill:#bbc91b"/>
 <path d="m27.8 30.611112-8.4 26.388888h37.8c1.5512 0 2.8-1.238888 2.8-2.777778v-5.555556-8.333332z" style="fill-rule:evenodd;fill:#3e7952"/>
 <path d="m6.8 7.0000002c-1.5512 0-2.8 1.238889-2.8 2.7777778v44.444444c0 1.53889 1.2488 2.777778 2.8 2.777778h13.939844l14.060156-50z" style="fill-rule:evenodd;fill:#3a76a2"/>
 <path d="M 31.47227,13.179472 C 20.28018,26.391626 4,25.055556 4,25.055556 l 0,5.555556 c 0,0 5.39651,6.95197 20.08398,5.9774 z" style="fill:#9f3f32"/>
 <path d="m23.565812 23.070958c-1.06575 0.0056-2.651152 1.778098-1.458422 2.640834 1.30683 0.945278 0.956648 1.967972 0.302386 2.234666-0.654262 0.266722-1.649298 0.0282-1.734446-1.564556-0.08106-1.515082-1.728552-2.423012-3.281166-0.15746-0.0959 0.239918-0.167566 0.482404-0.201572 0.724958-0.306768 2.18825 1.849526 4.330056 4.055282 4.63439 2.20577 0.304348 4.809476-1.604416 5.116244-3.79268 0.266658-1.902098-1.01122-4.002486-2.798278-4.72014zm-5.667144 2.244944c-0.0581 0.08112-0.09646 0.16694-0.148694 0.249946l0.148694-0.249946z" style="fill:#4d2f2b"/>
 <path d="m31.472266 13.179471c-7.205878 7.504147-15.07971 10.097255-21.153125 11.509873 0.67738 0.792804 1.829195 1.7551 3.480859 1.7551 2.8 0 4.2-1.388888 4.2-1.388888s3.658914 0.882194 8.4-2.777778c1.63286-1.260524 2.777944-2.793997 3.61211-4.269749z" style="fill:#dee3e3"/>
 <path d="m26.345314 30.128256c-1.034242 0.411498-2.295142 0.954-4.145314 1.871744-3.123858 1.549534-5.709252 2.449932-7.475782 3.899488 2.885911 1.105068 5.922886 1.363156 9.359766 0.689018z" style="fill:#e05e4c"/>
 <path d="m45.469532 35.339302c-0.62188 0.857352-1.279768 1.99117-1.946876 3.420682-1.895376 4.06154-3.032936 8.42407-4.473438 8.273654-1.440488-0.15046-2.529846-1.548364-3.328054-2.454864-0.798212-0.906486-1.795262-2.696156-2.780862-3.222656s-1.211084-0.376314-1.741796-0.301106c-0.530712 0.07528-0.79812-0.09494-1.063672 0.602212-0.265524 0.697112 1.11389 2.245124 1.492968 3.523764 0.29669 1.00074 1.003002 3.441888 1.263282 4.831164l2.26133 6.987848h15.21165c0.746264-2.106574 2.486072-4.896984 4.683984-6.868488 0.405962-0.364146 3.110422-2.485208 3.31953-2.916126 0.296998-0.612038-0.0136-1.649552-0.820312-1.55436-0.26891 0.03174-0.619736 0.18218-1.07461 0.501844-0.823164 0.578444-3.244978 1.775094-4.295704 2.503796 1.09838-1.599468 3.27443-4.104024 3.85547-4.94249 0.608696-0.878338 1.73192-2.671164 1.916796-3.78418l-1.832032-0.672744c-0.624044 0.408182-1.355348 1.163674-2.283202 2.275934-1.819566 2.18118-4.01732 5.415484-4.623828 4.964192-0.606536-0.451276 1.895202-3.835516 3.032422-6.01671 0.403984-0.774842 0.795648-1.52652 1.121094-2.240668l-2.99414-1.101346c-0.622914 0.841894-1.159858 1.761472-1.462892 2.36274-0.758156 1.504276-2.730168 5.867986-3.4125 5.64236-0.682346-0.225638 0.454188-3.986678 1.591408-6.092666 0.468998-0.868526 0.928974-1.794656 1.26875-2.658418z" style="fill:#ffc169"/>
 <path d="m56.351208 8.97825c-3.648792 0-10.351208 0-16.178904 2.5955-2.481094 1.105014-4.865056 3.871639-3.648792 5.07825 1.216264 1.206625 3.670226-0.596889 7.29757-1.8655 6.378918-2.230944 13.507354-3.344153 16.178918-3.658361v-1.5984306c-0.766388-0.283264-1.929914-0.5514584-3.648792-0.5514584z" style="fill:#6c5548"/>
 <path d="m46.924278 16.000001c-4.266386 0-8.924278 5.952248-8.924278 10.286846 0 2.43836 5.475356 3.123642 9.600362 3.656994 4.23227 0.547212 8.399638-2.979404 8.399638-7.31399 0-0.317056-0.03176-0.619804-0.08112-0.914934v-0.0028c-0.0024-0.014-0.0058-0.02724-0.0082-0.04122-9.8e-5 -5.48e-4 -0.0026-0.0022-0.0028-0.0028-0.601376-3.405447-4.351024-5.310209-8.010216-5.602266-0.0036-2.93e-4 -0.0072-0.0024-0.0108-0.0027-0.321678-0.02522-0.644644-0.06309-0.962644-0.06309z" style="opacity:.2"/>
 <path d="m46.924278 15c-4.266386 0-8.924278 5.952247-8.924278 10.286846 0 2.43836 5.475356 3.123642 9.600362 3.656994 4.23227 0.547212 8.399638-2.979404 8.399638-7.31399 0-0.317056-0.03176-0.619804-0.08112-0.914935v-0.0028c-0.0024-0.01408-0.0058-0.02724-0.0082-0.04122-9.8e-5 -5.47e-4 -0.0026-0.0022-0.0028-0.0028-0.601376-3.405447-4.351024-5.310209-8.010216-5.602266-0.0036-2.92e-4 -0.0072-0.0024-0.0108-0.0027-0.321678-0.0252-0.644644-0.06307-0.962644-0.06307z" style="fill:#ffffff"/>
 <path d="m48.019532 15.082031c-1.221398 0.754267-2.017124 2.11543-2.019532 3.648438-6.5e-4 2.357087 1.790378 4.269449 4 4.269531 2.209622-8.2e-5 4.00065-1.912444 4-4.269531-0.0012-0.310311-0.05714-0.949133-0.121094-1.402344-1.532844-1.292628-3.699114-2.052758-5.859374-2.246094z" style="fill:#583268"/>
 <path d="m10.860547 7.0000002c0.271103 2.777936 1.15365 6.2741078 2.034375 7.7874648 1.739682 2.98932 4.091644 2.810945 7.104878 1.08507 3.012968-1.725889 5.304096-4.884951 3.5644-7.8742708-0.17598-0.3023808-0.43233-0.6484118-0.7-0.998264z" style="fill:#54d883"/>
 <path d="m32.451172 7.0000002-13.505079 50h0.453907 1.339844 1.104688l13.505078-50h-0.54961-2.348828z" style="fill:#ffffff"/>
 <path d="m27.8 29.222222-0.72461 2.682836 32.92461 8.751084v-0.322808-2.552626l-32.2-8.558486z" style="fill:#ffffff"/>
 <path d="M 6.8007812 7 C 5.2495812 7 4 8.238455 4 9.7773438 L 4 10.777344 C 4 9.2384548 5.2495812 8 6.8007812 8 L 34.800781 8 L 57.199219 8 C 58.750419 8 60 9.2384548 60 10.777344 L 60 9.7773438 C 60 8.2384549 58.750419 7 57.199219 7 L 34.800781 7 L 6.8007812 7 z" style="fill-rule:evenodd;fill:#ffffff;opacity:.2"/>
 <path d="m31.324218 8-13.398437 50h1.472657 1.339844 1.33203l13.394532-50h-0.664062-3.476564z" style="opacity:.2"/>
 <path d="m28.042968 29.472874-1.035156 3.863282 32.992188 8.839844v-0.84375-3.296876l-31.957032-8.5625z" style="opacity:.2"/>
 <path d="m31.324218 7-13.398437 50h1.472657 1.339844 1.33203l13.394532-50h-0.664062-3.476564z" style="fill:#ffffff"/>
 <path d="m28.042968 28.472656-1.035156 3.863282 32.992188 8.839844v-0.84375-3.296876l-31.957032-8.5625z" style="fill:#ffffff"/>
</svg>

<svg xmlns="http://www.w3.org/2000/svg" width="64" height="64" version="1">
 <path style="opacity:0.2;fill-rule:evenodd" d="M 6.8007812,8 C 5.2495812,8 4,9.238455 4,10.777344 L 4,55.222656 C 4,56.761546 5.2495812,58 6.8007812,58 l 12.5976568,0 1.339844,0 36.460936,0 C 58.750418,58 60,56.761546 60,55.222656 l 0,-5.554688 0,-8.335936 0,-30.554688 C 60,9.238455 58.750418,8 57.199218,8 L 34.800782,8 6.8007812,8 Z"/>
 <path style="fill:#bbc91b;fill-rule:evenodd" d="M 34.8,7.0000002 27.8,30.611112 60,40.333334 60,9.777778 C 60,8.2388892 58.7512,7.0000002 57.2,7.0000002 Z"/>
 <path style="fill:#3e7952;fill-rule:evenodd" d="M 27.8,30.611112 19.4,57 57.2,57 c 1.5512,0 2.8,-1.238888 2.8,-2.777778 l 0,-5.555556 0,-8.333332 z"/>
 <path style="fill:#3a76a2;fill-rule:evenodd" d="m 6.8,7.0000002 c -1.5512,0 -2.8,1.238889 -2.8,2.7777778 L 4,54.222222 C 4,55.761112 5.2488,57 6.8,57 L 20.739844,57 34.8,7.0000002 Z"/>
 <path style="fill:#9f3f32" d="M 31.47227,13.179472 C 20.28018,26.391626 4,25.055556 4,25.055556 l 0,5.555556 c 0,0 5.39651,6.95197 20.08398,5.9774 z"/>
 <path style="fill:#4d2f2b" d="m 23.565812,23.070958 c -1.06575,0.0056 -2.651152,1.778098 -1.458422,2.640834 1.30683,0.945278 0.956648,1.967972 0.302386,2.234666 -0.654262,0.266722 -1.649298,0.0282 -1.734446,-1.564556 -0.08106,-1.515082 -1.728552,-2.423012 -3.281166,-0.15746 -0.0959,0.239918 -0.167566,0.482404 -0.201572,0.724958 -0.306768,2.18825 1.849526,4.330056 4.055282,4.63439 2.20577,0.304348 4.809476,-1.604416 5.116244,-3.79268 0.266658,-1.902098 -1.01122,-4.002486 -2.798278,-4.72014 z m -5.667144,2.244944 c -0.0581,0.08112 -0.09646,0.16694 -0.148694,0.249946 l 0.148694,-0.249946 z"/>
 <path style="fill:#dee3e3" d="m 31.472266,13.179471 c -7.205878,7.504147 -15.07971,10.097255 -21.153125,11.509873 0.67738,0.792804 1.829195,1.7551 3.480859,1.7551 2.8,0 4.2,-1.388888 4.2,-1.388888 0,0 3.658914,0.882194 8.4,-2.777778 1.63286,-1.260524 2.777944,-2.793997 3.61211,-4.269749 z"/>
 <path style="fill:#e05e4c" d="M 26.345314,30.128256 C 25.311072,30.539754 24.050172,31.082256 22.2,32 c -3.123858,1.549534 -5.709252,2.449932 -7.475782,3.899488 2.885911,1.105068 5.922886,1.363156 9.359766,0.689018 z"/>
 <path style="fill:#ffc169" d="m 45.469532,35.339302 c -0.62188,0.857352 -1.279768,1.99117 -1.946876,3.420682 -1.895376,4.06154 -3.032936,8.42407 -4.473438,8.273654 -1.440488,-0.15046 -2.529846,-1.548364 -3.328054,-2.454864 -0.798212,-0.906486 -1.795262,-2.696156 -2.780862,-3.222656 -0.9856,-0.5265 -1.211084,-0.376314 -1.741796,-0.301106 -0.530712,0.07528 -0.79812,-0.09494 -1.063672,0.602212 -0.265524,0.697112 1.11389,2.245124 1.492968,3.523764 0.29669,1.00074 1.003002,3.441888 1.263282,4.831164 L 35.152414,57 l 15.21165,0 c 0.746264,-2.106574 2.486072,-4.896984 4.683984,-6.868488 0.405962,-0.364146 3.110422,-2.485208 3.31953,-2.916126 0.296998,-0.612038 -0.0136,-1.649552 -0.820312,-1.55436 -0.26891,0.03174 -0.619736,0.18218 -1.07461,0.501844 -0.823164,0.578444 -3.244978,1.775094 -4.295704,2.503796 1.09838,-1.599468 3.27443,-4.104024 3.85547,-4.94249 0.608696,-0.878338 1.73192,-2.671164 1.916796,-3.78418 l -1.832032,-0.672744 c -0.624044,0.408182 -1.355348,1.163674 -2.283202,2.275934 -1.819566,2.18118 -4.01732,5.415484 -4.623828,4.964192 -0.606536,-0.451276 1.895202,-3.835516 3.032422,-6.01671 0.403984,-0.774842 0.795648,-1.52652 1.121094,-2.240668 l -2.99414,-1.101346 c -0.622914,0.841894 -1.159858,1.761472 -1.462892,2.36274 -0.758156,1.504276 -2.730168,5.867986 -3.4125,5.64236 -0.682346,-0.225638 0.454188,-3.986678 1.591408,-6.092666 0.468998,-0.868526 0.928974,-1.794656 1.26875,-2.658418 z"/>
 <path style="fill:#6c5548" d="m 56.351208,8.97825 c -3.648792,0 -10.351208,0 -16.178904,2.5955 -2.481094,1.105014 -4.865056,3.871639 -3.648792,5.07825 1.216264,1.206625 3.670226,-0.596889 7.29757,-1.8655 C 50.2,12.555556 57.328436,11.442347 60,11.128139 L 60,9.5297084 C 59.233612,9.2464444 58.070086,8.97825 56.351208,8.97825 Z"/>
 <path style="opacity:0.2" d="M 46.924278,16.000001 C 42.657892,16.000001 38,21.952249 38,26.286847 c 0,2.43836 5.475356,3.123642 9.600362,3.656994 C 51.832632,30.491053 56,26.964437 56,22.629851 c 0,-0.317056 -0.03176,-0.619804 -0.08112,-0.914934 0,0 0,-0.0028 0,-0.0028 -0.0024,-0.014 -0.0058,-0.02724 -0.0082,-0.04122 -9.8e-5,-5.48e-4 -0.0026,-0.0022 -0.0028,-0.0028 -0.601376,-3.405447 -4.351024,-5.310209 -8.010216,-5.602266 -0.0036,-2.93e-4 -0.0072,-0.0024 -0.0108,-0.0027 -0.321678,-0.02522 -0.644644,-0.06309 -0.962644,-0.06309 z"/>
 <path style="fill:#ffffff" d="M 46.924278,15 C 42.657892,15 38,20.952247 38,25.286846 c 0,2.43836 5.475356,3.123642 9.600362,3.656994 C 51.832632,29.491052 56,25.964436 56,21.62985 c 0,-0.317056 -0.03176,-0.619804 -0.08112,-0.914935 0,0 0,-0.0028 0,-0.0028 -0.0024,-0.01408 -0.0058,-0.02724 -0.0082,-0.04122 -9.8e-5,-5.47e-4 -0.0026,-0.0022 -0.0028,-0.0028 -0.601376,-3.405447 -4.351024,-5.310209 -8.010216,-5.602266 -0.0036,-2.92e-4 -0.0072,-0.0024 -0.0108,-0.0027 -0.321678,-0.0252 -0.644644,-0.06307 -0.962644,-0.06307 z"/>
 <path style="fill:#583268" d="M 48.019532,15.082031 C 46.798134,15.836298 46.002408,17.197461 46,18.730469 45.99935,21.087556 47.790378,22.999918 50,23 c 2.209622,-8.2e-5 4.00065,-1.912444 4,-4.269531 -0.0012,-0.310311 -0.05714,-0.949133 -0.121094,-1.402344 -1.532844,-1.292628 -3.699114,-2.052758 -5.859374,-2.246094 z"/>
 <path style="fill:#54d883" d="m 10.860547,7.0000002 c 0.271103,2.777936 1.15365,6.2741078 2.034375,7.7874648 1.739682,2.98932 4.091644,2.810945 7.104878,1.08507 3.012968,-1.725889 5.304096,-4.884951 3.5644,-7.8742708 -0.17598,-0.3023808 -0.43233,-0.6484118 -0.7,-0.998264 z"/>
 <path style="fill:#ffffff" d="M 32.451172,7.0000002 18.946093,57 19.4,57 l 1.339844,0 1.104688,0 13.505078,-49.9999998 -0.54961,0 -2.348828,0 z"/>
 <path style="fill:#ffffff" d="M 27.8,29.222222 27.07539,31.905058 60,40.656142 60,40.333334 60,37.780708 27.8,29.222222 Z"/>
 <path style="opacity:0.2;fill:#ffffff;fill-rule:evenodd" d="M 6.8007812 7 C 5.2495812 7 4 8.238455 4 9.7773438 L 4 10.777344 C 4 9.2384548 5.2495812 8 6.8007812 8 L 34.800781 8 L 57.199219 8 C 58.750419 8 60 9.2384548 60 10.777344 L 60 9.7773438 C 60 8.2384549 58.750419 7 57.199219 7 L 34.800781 7 L 6.8007812 7 z"/>
 <path style="opacity:0.2" d="m 31.324218,8 -13.398437,50 1.472657,0 1.339844,0 1.33203,0 13.394532,-50 -0.664062,0 -3.476564,0 z"/>
 <path style="opacity:0.2" d="M 28.042968,29.472874 27.007812,33.336156 60,42.176 l 0,-0.84375 0,-3.296876 -31.957032,-8.5625 z"/>
 <path style="fill:#ffffff" d="m 31.324218,7 -13.398437,50 1.472657,0 1.339844,0 1.33203,0 13.394532,-50 -0.664062,0 -3.476564,0 z"/>
 <path style="fill:#ffffff" d="M 28.042968,28.472656 27.007812,32.335938 60,41.175782 l 0,-0.84375 0,-3.296876 -31.957032,-8.5625 z"/>
</svg>
